lib/bbc/channels/radio2.large.svg

<?xml version="1.0" encoding="utf-8"?>
<!-- Generator: Adobe Illustrator 12.0.0, SVG Export Plug-In  -->
<!DOCTYPE svg PUBLIC "-//W3C//DTD SVG 1.1//EN" "http://www.w3.org/Graphics/SVG/1.1/DTD/svg11.dtd" [
	<!ENTITY ns_flows "http://ns.adobe.com/Flows/1.0/">
	<!ENTITY ns_svg "http://www.w3.org/2000/svg">
	<!ENTITY ns_xlink "http://www.w3.org/1999/xlink">
]>
<svg  version="1.1" xmlns="&ns_svg;" xmlns:xlink="&ns_xlink;" xmlns:a="http://ns.adobe.com/AdobeSVGViewerExtensions/3.0/"
	 width="39" height="22" viewBox="-0.625 -0.549 39 22" enable-background="new -0.625 -0.549 39 22" xml:space="preserve">
<defs>
</defs>
<rect x="21.288" y="2.831" fill="#FFFFFF" stroke="#FFFFFF" width="12.096" height="15.12"/>
<path d="M12.343,1.191c-0.018-0.004-0.038-0.006-0.056-0.01l-0.023-0.003C12.232,1.173,12.2,1.17,12.166,1.167
	c-0.022-0.003-0.045-0.004-0.067-0.005c-0.04-0.003-0.079-0.004-0.116-0.004c-0.018,0-0.028,0-0.045,0
	c-0.033,0.001-0.063,0.003-0.094,0.005c-0.017,0.001-0.034,0.002-0.051,0.004c-0.025,0.002-0.049,0.004-0.074,0.008l-0.021,0.002
	l-0.023,0.004l-0.027,0.005c-0.012,0.001-0.024,0.003-0.036,0.006c-0.017,0.002-0.034,0.006-0.049,0.009
	c-0.1,0.022-0.193,0.049-0.277,0.082c-0.044,0.018-0.087,0.036-0.126,0.056c-0.034,0.017-0.066,0.034-0.097,0.052
	c-0.03,0.017-0.059,0.034-0.087,0.052c-0.015,0.012-0.031,0.021-0.047,0.033c-0.013,0.01-0.026,0.019-0.038,0.028
	c-0.027,0.021-0.053,0.042-0.077,0.063c-0.022,0.02-0.044,0.041-0.064,0.06c-0.018,0.017-0.037,0.035-0.052,0.055
	C10.68,1.701,10.663,1.72,10.647,1.74c-0.018,0.021-0.033,0.043-0.05,0.066c-0.013,0.017-0.024,0.034-0.036,0.052
	c-0.008,0.012-0.015,0.024-0.022,0.036c-0.045,0.071-0.082,0.148-0.115,0.23c-0.039,0.102-0.067,0.213-0.083,0.328
	c-0.004,0.038-0.008,0.075-0.011,0.114c-0.002,0.029-0.002,0.059-0.002,0.088c0,0.023,0,0.045,0,0.067
	c0.002,0.023,0.005,0.046,0.007,0.068l0.002,0.016c0.003,0.027,0.008,0.054,0.013,0.079c0.002,0.011,0.004,0.02,0.006,0.031
	c0.004,0.021,0.01,0.043,0.014,0.064c0.008,0.027,0.016,0.053,0.025,0.08c0.011,0.032,0.023,0.063,0.035,0.094
	c0.02,0.048,0.043,0.095,0.066,0.139c0.015,0.025,0.029,0.05,0.044,0.075c0.012,0.019,0.024,0.037,0.036,0.055
	c0.016,0.024,0.034,0.047,0.051,0.068c0.017,0.023,0.036,0.044,0.055,0.066c0.021,0.025,0.044,0.049,0.066,0.071l0.011,0.011
	c0.019,0.017,0.038,0.037,0.061,0.056c0.015,0.012,0.031,0.027,0.048,0.04c0.016,0.012,0.033,0.026,0.051,0.038
	c0.022,0.016,0.043,0.031,0.066,0.046c0.027,0.015,0.053,0.032,0.081,0.048c0.055,0.031,0.116,0.061,0.184,0.089
	c0.025,0.01,0.052,0.019,0.079,0.028c0.026,0.01,0.053,0.018,0.082,0.026c0.049,0.013,0.1,0.026,0.153,0.037
	c0.042,0.008,0.088,0.015,0.134,0.021c0.046,0.006,0.094,0.011,0.142,0.013c0.025,0.001,0.049,0.001,0.073,0.003h0.035
	c0.089,0,0.17-0.004,0.246-0.01l0.015-0.001c0.03-0.003,0.059-0.006,0.087-0.01c0.044-0.005,0.085-0.011,0.124-0.018
	c0.025-0.004,0.049-0.01,0.072-0.014c0.037-0.008,0.071-0.017,0.104-0.025c0.024-0.006,0.048-0.013,0.071-0.021
	c0.027-0.007,0.052-0.016,0.077-0.025l0.024-0.008c0.012-0.004,0.028-0.01,0.047-0.017c0.025-0.01,0.056-0.022,0.091-0.038
	c0.021-0.008,0.044-0.018,0.067-0.029c0.019-0.01,0.042-0.021,0.064-0.03c0.008-0.005,0.018-0.01,0.028-0.013V3.282
	c-0.007,0.004-0.014,0.009-0.02,0.012l-0.037,0.022C12.972,3.339,12.936,3.36,12.9,3.38c-0.039,0.02-0.078,0.04-0.117,0.059
	c-0.066,0.031-0.13,0.057-0.192,0.079c-0.118,0.043-0.225,0.069-0.32,0.086c-0.012,0.002-0.023,0.004-0.034,0.006
	c-0.027,0.003-0.051,0.007-0.076,0.01c-0.037,0.003-0.073,0.006-0.103,0.007C12.038,3.628,12.02,3.629,12,3.629
	c-0.038,0-0.077-0.001-0.118-0.004c-0.047-0.004-0.094-0.009-0.143-0.017c-0.078-0.013-0.157-0.033-0.232-0.061
	c-0.013-0.003-0.024-0.008-0.035-0.013c-0.007-0.002-0.014-0.006-0.023-0.009c-0.011-0.005-0.024-0.01-0.036-0.016
	c-0.027-0.013-0.053-0.026-0.079-0.041c-0.012-0.007-0.024-0.015-0.038-0.022c-0.012-0.009-0.025-0.017-0.038-0.027
	c-0.015-0.009-0.031-0.021-0.045-0.033c-0.016-0.012-0.031-0.024-0.044-0.035l-0.017-0.016l-0.009-0.008l-0.006-0.005l-0.006-0.006
	c-0.025-0.024-0.047-0.049-0.068-0.073c-0.01-0.013-0.021-0.028-0.032-0.041c-0.009-0.014-0.018-0.027-0.027-0.041
	c-0.008-0.012-0.016-0.025-0.023-0.038c-0.012-0.018-0.022-0.037-0.032-0.057c-0.007-0.015-0.014-0.032-0.021-0.048
	c-0.012-0.026-0.021-0.054-0.03-0.08c-0.007-0.02-0.012-0.041-0.018-0.061c-0.013-0.055-0.02-0.107-0.024-0.151
	c-0.003-0.017-0.003-0.033-0.004-0.047c-0.001-0.021-0.001-0.04-0.001-0.055V2.59c0.001-0.031,0.005-0.07,0.01-0.114
	c0.004-0.028,0.01-0.056,0.017-0.087c0.005-0.02,0.01-0.04,0.017-0.062c0.006-0.019,0.013-0.038,0.021-0.059
	c0.004-0.013,0.01-0.026,0.016-0.039c0.008-0.019,0.017-0.037,0.026-0.055c0.008-0.014,0.015-0.028,0.024-0.042
	c0.017-0.03,0.038-0.061,0.06-0.091c0.008-0.012,0.017-0.022,0.025-0.033c0.012-0.014,0.024-0.028,0.036-0.042
	c0.007-0.006,0.014-0.013,0.02-0.02c0.099-0.099,0.211-0.174,0.325-0.225c0.019-0.008,0.037-0.016,0.055-0.023
	c0.018-0.007,0.036-0.014,0.055-0.021c0.019-0.007,0.039-0.013,0.06-0.019c0.018-0.005,0.038-0.01,0.057-0.015
	c0.019-0.004,0.039-0.008,0.057-0.011c0.021-0.004,0.041-0.007,0.062-0.01c0.021-0.002,0.042-0.005,0.063-0.006
	c0.039-0.003,0.077-0.005,0.114-0.005c0.014,0,0.026,0,0.039,0c0.028,0.001,0.054,0.002,0.081,0.003
	c0.019,0.002,0.037,0.002,0.055,0.004c0.033,0.004,0.067,0.007,0.098,0.012c0.027,0.005,0.055,0.009,0.08,0.013
	c0.038,0.009,0.073,0.017,0.106,0.026c0.02,0.005,0.039,0.011,0.056,0.016c0.026,0.008,0.048,0.015,0.066,0.021
	c0.03,0.011,0.047,0.016,0.047,0.016c0.026,0.009,0.052,0.021,0.078,0.03c0.035,0.015,0.067,0.029,0.099,0.043
	c0.025,0.012,0.05,0.025,0.074,0.035c0.019,0.01,0.037,0.02,0.054,0.028c0.029,0.015,0.054,0.029,0.075,0.04l0.055,0.031V1.399
	c0,0-0.034-0.013-0.09-0.035c-0.026-0.01-0.056-0.021-0.09-0.032c-0.018-0.007-0.038-0.014-0.06-0.022
	c-0.016-0.005-0.033-0.011-0.051-0.017c-0.021-0.006-0.041-0.014-0.063-0.02c-0.016-0.004-0.031-0.01-0.048-0.015l-0.015-0.004
	c-0.015-0.004-0.032-0.008-0.046-0.013c-0.021-0.004-0.04-0.01-0.06-0.016c-0.012-0.002-0.026-0.004-0.038-0.008
	c-0.022-0.005-0.042-0.01-0.064-0.014S12.367,1.194,12.343,1.191 M9.693,0.64h4.206v3.958H9.693V0.64z"/>
<path d="M6.461,2.829v0.778h0.505c0,0,0.01-0.002,0.025-0.002c0.018,0,0.042-0.002,0.072-0.003C7.116,3.596,7.19,3.586,7.26,3.562
	c0.063-0.02,0.124-0.053,0.172-0.1C7.45,3.443,7.465,3.425,7.478,3.405C7.517,3.343,7.528,3.28,7.53,3.244
	c0.001-0.016,0.001-0.025,0.001-0.025s0-0.007,0-0.019c0-0.015-0.002-0.044-0.01-0.075c-0.01-0.037-0.027-0.079-0.059-0.119
	c-0.007-0.007-0.013-0.015-0.02-0.021C7.428,2.97,7.413,2.957,7.396,2.945c-0.028-0.02-0.06-0.038-0.094-0.053
	c-0.045-0.02-0.096-0.034-0.153-0.045C7.122,2.842,7.091,2.837,7.06,2.835C7.042,2.832,7.022,2.831,7.002,2.83
	C6.984,2.829,6.968,2.829,6.949,2.829H6.461z"/>
<path d="M6.461,1.645v0.737h0.244c0,0,0.016,0,0.038,0C6.761,2.381,6.78,2.381,6.798,2.379c0.05-0.004,0.12-0.01,0.189-0.029
	c0.015-0.004,0.029-0.009,0.041-0.014c0.054-0.019,0.107-0.047,0.148-0.087c0.032-0.032,0.053-0.068,0.067-0.102
	C7.261,2.105,7.267,2.064,7.27,2.036C7.271,2.01,7.271,1.994,7.271,1.994s0-0.012,0-0.031c0-0.032-0.007-0.085-0.033-0.135
	c-0.012-0.024-0.03-0.047-0.052-0.069C7.159,1.732,7.125,1.71,7.09,1.695C7.021,1.664,6.941,1.652,6.875,1.648
	C6.847,1.646,6.82,1.645,6.797,1.645H6.461z"/>
<path d="M5.951,1.194v2.852h1.073c0,0,0.524,0.013,0.813-0.275c0.235-0.236,0.218-0.508,0.218-0.508S8.071,2.98,7.854,2.761
	C7.667,2.576,7.432,2.526,7.432,2.526s0.106-0.049,0.189-0.132c0.038-0.038,0.175-0.162,0.175-0.462
	c0-0.303-0.201-0.477-0.201-0.477S7.374,1.194,6.876,1.194H5.951z M4.848,0.64h4.206v3.958H4.848V0.64z"/>
<path d="M1.615,2.829v0.778h0.506c0,0,0.009-0.002,0.026-0.002s0.041-0.002,0.07-0.003c0.055-0.006,0.127-0.016,0.197-0.04
	c0.064-0.02,0.125-0.053,0.173-0.1C2.605,3.443,2.62,3.425,2.632,3.405C2.671,3.343,2.681,3.28,2.683,3.244
	c0.002-0.016,0.002-0.025,0.002-0.025V3.2C2.683,3.185,2.682,3.156,2.674,3.125C2.665,3.088,2.647,3.046,2.615,3.006
	C2.61,2.999,2.603,2.991,2.596,2.985C2.581,2.97,2.567,2.957,2.551,2.945c-0.029-0.02-0.06-0.038-0.094-0.053
	C2.411,2.872,2.36,2.857,2.304,2.847c-0.027-0.005-0.058-0.01-0.089-0.012C2.196,2.832,2.177,2.831,2.157,2.83
	C2.14,2.829,2.121,2.829,2.104,2.829H1.615z"/>
<path d="M1.615,1.645v0.737H1.86c0,0,0.016,0,0.037,0c0.017-0.001,0.038-0.001,0.055-0.003c0.051-0.004,0.121-0.01,0.19-0.029
	c0.014-0.004,0.027-0.009,0.041-0.014C2.237,2.317,2.29,2.289,2.33,2.249c0.032-0.032,0.053-0.068,0.068-0.102
	c0.017-0.042,0.024-0.083,0.026-0.111C2.426,2.01,2.426,1.994,2.426,1.994V1.963C2.423,1.931,2.417,1.878,2.392,1.828
	C2.38,1.804,2.362,1.781,2.341,1.759C2.312,1.732,2.279,1.71,2.243,1.695C2.174,1.664,2.096,1.652,2.029,1.648
	C2,1.646,1.974,1.645,1.952,1.645H1.615z"/>
<path d="M1.104,1.194v2.852h1.073c0,0,0.523,0.013,0.812-0.275c0.235-0.236,0.219-0.508,0.219-0.508S3.225,2.98,3.006,2.761
	C2.82,2.576,2.584,2.526,2.584,2.526s0.107-0.049,0.189-0.132C2.813,2.356,2.95,2.232,2.95,1.932c0-0.303-0.202-0.477-0.202-0.477
	s-0.22-0.261-0.717-0.261H1.104z M0,0.64h4.206v3.958H0V0.64z"/>
<path d="M0,5.578v3.273h0.47v-1.42h0.197c0.241,0,0.436,0.077,0.869,0.749l0.432,0.671h0.56C2.303,8.54,2.222,8.429,2.082,8.203
	C1.833,7.796,1.65,7.493,1.353,7.297C1.703,7.157,1.9,6.875,1.9,6.495c0-0.566-0.412-0.917-1.074-0.917H0z M0.47,5.982h0.303
	c0.455,0,0.638,0.187,0.642,0.494C1.42,6.75,1.276,7.009,0.773,7.009H0.47V5.982z"/>
<path d="M4.238,5.56H3.907L2.501,8.851h0.48l0.413-0.964h1.392l0.436,0.964h0.479L4.238,5.56z M4.066,6.28l0.528,1.184H3.576
	L4.066,6.28z"/>
<path d="M6.092,8.85h1.276c1.08,0,1.737-0.796,1.737-1.635c0-0.772-0.532-1.637-1.741-1.637H6.092V8.85z M6.563,6.001h0.723
	c0.917,0,1.335,0.557,1.335,1.214c0,0.403-0.245,1.214-1.309,1.214H6.563V6.001z"/>
<line fill="none" stroke="#000000" stroke-width="0.47" stroke-miterlimit="10" x1="9.881" y1="8.85" x2="9.881" y2="5.578"/>
<path d="M10.658,7.215c0,0.888,0.678,1.679,1.747,1.679c1.108,0,1.77-0.797,1.77-1.679c0-0.911-0.68-1.679-1.76-1.679
	C11.354,5.536,10.658,6.308,10.658,7.215 M11.143,7.215c0-0.72,0.542-1.247,1.272-1.247c0.734,0,1.276,0.527,1.276,1.247
	c0,0.715-0.542,1.248-1.276,1.248C11.685,8.463,11.143,7.93,11.143,7.215"/>
<path fill="#F47C22" d="M27.361,0c-5.728,0-10.37,4.645-10.37,10.375c0,5.73,4.643,10.376,10.37,10.376
	c5.729,0,10.369-4.646,10.369-10.376C37.73,4.645,33.089,0,27.361,0 M32.927,16.855h-11.45l5.91-6.939
	c0.842-0.951,1.299-1.597,1.299-2.288c0-0.622-0.427-1.293-1.115-1.293c-0.824,0-1.238,0.815-1.271,1.393L26.27,8.275h-3.793
	l0.031-0.609c0.057-1.069,0.236-1.656,0.738-2.419c1.018-1.546,2.441-2.298,4.354-2.298c3.225,0,5.227,1.7,5.227,4.438
	c0,1.154-0.396,2.087-1.313,3.102l-2.352,2.687h3.766L32.927,16.855L32.927,16.855z"/>
</svg>

<?xml version="1.0" encoding="UTF-8"?>
<svg width="42px" height="42px" viewBox="0 0 42 42" version="1.1" xmlns="http://www.w3.org/2000/svg" xmlns:xlink="http://www.w3.org/1999/xlink">
    <!-- Generator: Sketch 41.2 (35397) - http://www.bohemiancoding.com/sketch -->
    <title>Untitled 3</title>
    <desc>Created with Sketch.</desc>
    <defs></defs>
    <g id="Page-1" stroke="none" stroke-width="1" fill="none" fill-rule="evenodd">
        <rect id="radio4.large" fill="#FFFFFF" x="0" y="0" width="42" height="42"></rect>
        <g id="radio2.large" transform="translate(2.000000, 11.000000)">
            <rect id="Rectangle-path" stroke="#FFFFFF" fill="#FFFFFF" x="21.288" y="2.831" width="12.096" height="15.12"></rect>
            <path d="M12.343,1.191 C12.325,1.187 12.305,1.185 12.287,1.181 L12.264,1.178 C12.232,1.173 12.2,1.17 12.166,1.167 C12.144,1.164 12.121,1.163 12.099,1.162 C12.059,1.159 12.02,1.158 11.983,1.158 L11.938,1.158 C11.905,1.159 11.875,1.161 11.844,1.163 C11.827,1.164 11.81,1.165 11.793,1.167 C11.768,1.169 11.744,1.171 11.719,1.175 L11.698,1.177 L11.675,1.181 L11.648,1.186 C11.636,1.187 11.624,1.189 11.612,1.192 C11.595,1.194 11.578,1.198 11.563,1.201 C11.463,1.223 11.37,1.25 11.286,1.283 C11.242,1.301 11.199,1.319 11.16,1.339 C11.126,1.356 11.094,1.373 11.063,1.391 C11.033,1.408 11.004,1.425 10.976,1.443 C10.961,1.455 10.945,1.464 10.929,1.476 C10.916,1.486 10.903,1.495 10.891,1.504 C10.864,1.525 10.838,1.546 10.814,1.567 C10.792,1.587 10.77,1.608 10.75,1.627 C10.732,1.644 10.713,1.662 10.698,1.682 C10.68,1.701 10.663,1.72 10.647,1.74 C10.629,1.761 10.614,1.783 10.597,1.806 C10.584,1.823 10.573,1.84 10.561,1.858 C10.553,1.87 10.546,1.882 10.539,1.894 C10.494,1.965 10.457,2.042 10.424,2.124 C10.385,2.226 10.357,2.337 10.341,2.452 C10.337,2.49 10.333,2.527 10.33,2.566 C10.328,2.595 10.328,2.625 10.328,2.654 L10.328,2.721 C10.33,2.744 10.333,2.767 10.335,2.789 L10.337,2.805 C10.34,2.832 10.345,2.859 10.35,2.884 C10.352,2.895 10.354,2.904 10.356,2.915 C10.36,2.936 10.366,2.958 10.37,2.979 C10.378,3.006 10.386,3.032 10.395,3.059 C10.406,3.091 10.418,3.122 10.43,3.153 C10.45,3.201 10.473,3.248 10.496,3.292 C10.511,3.317 10.525,3.342 10.54,3.367 C10.552,3.386 10.564,3.404 10.576,3.422 C10.592,3.446 10.61,3.469 10.627,3.49 C10.644,3.513 10.663,3.534 10.682,3.556 C10.703,3.581 10.726,3.605 10.748,3.627 L10.759,3.638 C10.778,3.655 10.797,3.675 10.82,3.694 C10.835,3.706 10.851,3.721 10.868,3.734 C10.884,3.746 10.901,3.76 10.919,3.772 C10.941,3.788 10.962,3.803 10.985,3.818 C11.012,3.833 11.038,3.85 11.066,3.866 C11.121,3.897 11.182,3.927 11.25,3.955 C11.275,3.965 11.302,3.974 11.329,3.983 C11.355,3.993 11.382,4.001 11.411,4.009 C11.46,4.022 11.511,4.035 11.564,4.046 C11.606,4.054 11.652,4.061 11.698,4.067 C11.744,4.073 11.792,4.078 11.84,4.08 C11.865,4.081 11.889,4.081 11.913,4.083 L11.948,4.083 C12.037,4.083 12.118,4.079 12.194,4.073 L12.209,4.072 C12.239,4.069 12.268,4.066 12.296,4.062 C12.34,4.057 12.381,4.051 12.42,4.044 C12.445,4.04 12.469,4.034 12.492,4.03 C12.529,4.022 12.563,4.013 12.596,4.005 C12.62,3.999 12.644,3.992 12.667,3.984 C12.694,3.977 12.719,3.968 12.744,3.959 L12.768,3.951 C12.78,3.947 12.796,3.941 12.815,3.934 C12.84,3.924 12.871,3.912 12.906,3.896 C12.927,3.888 12.95,3.878 12.973,3.867 C12.992,3.857 13.015,3.846 13.037,3.837 C13.045,3.832 13.055,3.827 13.065,3.824 L13.065,3.282 C13.058,3.286 13.051,3.291 13.045,3.294 L13.008,3.316 C12.972,3.339 12.936,3.36 12.9,3.38 C12.861,3.4 12.822,3.42 12.783,3.439 C12.717,3.47 12.653,3.496 12.591,3.518 C12.473,3.561 12.366,3.587 12.271,3.604 C12.259,3.606 12.248,3.608 12.237,3.61 C12.21,3.613 12.186,3.617 12.161,3.62 C12.124,3.623 12.088,3.626 12.058,3.627 C12.038,3.628 12.02,3.629 12,3.629 C11.962,3.629 11.923,3.628 11.882,3.625 C11.835,3.621 11.788,3.616 11.739,3.608 C11.661,3.595 11.582,3.575 11.507,3.547 C11.494,3.544 11.483,3.539 11.472,3.534 C11.465,3.532 11.458,3.528 11.449,3.525 C11.438,3.52 11.425,3.515 11.413,3.509 C11.386,3.496 11.36,3.483 11.334,3.468 C11.322,3.461 11.31,3.453 11.296,3.446 C11.284,3.437 11.271,3.429 11.258,3.419 C11.243,3.41 11.227,3.398 11.213,3.386 C11.197,3.374 11.182,3.362 11.169,3.351 L11.152,3.335 L11.143,3.327 L11.137,3.322 L11.131,3.316 C11.106,3.292 11.084,3.267 11.063,3.243 C11.053,3.23 11.042,3.215 11.031,3.202 C11.022,3.188 11.013,3.175 11.004,3.161 C10.996,3.149 10.988,3.136 10.981,3.123 C10.969,3.105 10.959,3.086 10.949,3.066 C10.942,3.051 10.935,3.034 10.928,3.018 C10.916,2.992 10.907,2.964 10.898,2.938 C10.891,2.918 10.886,2.897 10.88,2.877 C10.867,2.822 10.86,2.77 10.856,2.726 C10.853,2.709 10.853,2.693 10.852,2.679 C10.851,2.658 10.851,2.639 10.851,2.624 L10.851,2.59 C10.852,2.559 10.856,2.52 10.861,2.476 C10.865,2.448 10.871,2.42 10.878,2.389 C10.883,2.369 10.888,2.349 10.895,2.327 C10.901,2.308 10.908,2.289 10.916,2.268 C10.92,2.255 10.926,2.242 10.932,2.229 C10.94,2.21 10.949,2.192 10.958,2.174 C10.966,2.16 10.973,2.146 10.982,2.132 C10.999,2.102 11.02,2.071 11.042,2.041 C11.05,2.029 11.059,2.019 11.067,2.008 C11.079,1.994 11.091,1.98 11.103,1.966 C11.11,1.96 11.117,1.953 11.123,1.946 C11.222,1.847 11.334,1.772 11.448,1.721 C11.467,1.713 11.485,1.705 11.503,1.698 C11.521,1.691 11.539,1.684 11.558,1.677 C11.577,1.67 11.597,1.664 11.618,1.658 C11.636,1.653 11.656,1.648 11.675,1.643 C11.694,1.639 11.714,1.635 11.732,1.632 C11.753,1.628 11.773,1.625 11.794,1.622 C11.815,1.62 11.836,1.617 11.857,1.616 C11.896,1.613 11.934,1.611 11.971,1.611 L12.01,1.611 C12.038,1.612 12.064,1.613 12.091,1.614 C12.11,1.616 12.128,1.616 12.146,1.618 C12.179,1.622 12.213,1.625 12.244,1.63 C12.271,1.635 12.299,1.639 12.324,1.643 C12.362,1.652 12.397,1.66 12.43,1.669 C12.45,1.674 12.469,1.68 12.486,1.685 C12.512,1.693 12.534,1.7 12.552,1.706 C12.582,1.717 12.599,1.722 12.599,1.722 C12.625,1.731 12.651,1.743 12.677,1.752 C12.712,1.767 12.744,1.781 12.776,1.795 C12.801,1.807 12.826,1.82 12.85,1.83 C12.869,1.84 12.887,1.85 12.904,1.858 C12.933,1.873 12.958,1.887 12.979,1.898 L13.034,1.929 L13.034,1.399 C13.034,1.399 13,1.386 12.944,1.364 C12.918,1.354 12.888,1.343 12.854,1.332 C12.836,1.325 12.816,1.318 12.794,1.31 C12.778,1.305 12.761,1.299 12.743,1.293 C12.722,1.287 12.702,1.279 12.68,1.273 C12.664,1.269 12.649,1.263 12.632,1.258 L12.617,1.254 C12.602,1.25 12.585,1.246 12.571,1.241 C12.55,1.237 12.531,1.231 12.511,1.225 C12.499,1.223 12.485,1.221 12.473,1.217 C12.451,1.212 12.431,1.207 12.409,1.203 C12.387,1.199 12.367,1.194 12.343,1.191 L12.343,1.191 Z M9.693,0.64 L13.899,0.64 L13.899,4.598 L9.693,4.598 L9.693,0.64 Z" id="Shape" fill="#000000"></path>
            <path d="M6.461,2.829 L6.461,3.607 L6.966,3.607 C6.966,3.607 6.976,3.605 6.991,3.605 C7.009,3.605 7.033,3.603 7.063,3.602 C7.116,3.596 7.19,3.586 7.26,3.562 C7.323,3.542 7.384,3.509 7.432,3.462 C7.45,3.443 7.465,3.425 7.478,3.405 C7.517,3.343 7.528,3.28 7.53,3.244 C7.531,3.228 7.531,3.219 7.531,3.219 L7.531,3.2 C7.531,3.185 7.529,3.156 7.521,3.125 C7.511,3.088 7.494,3.046 7.462,3.006 C7.455,2.999 7.449,2.991 7.442,2.985 C7.428,2.97 7.413,2.957 7.396,2.945 C7.368,2.925 7.336,2.907 7.302,2.892 C7.257,2.872 7.206,2.858 7.149,2.847 C7.122,2.842 7.091,2.837 7.06,2.835 C7.042,2.832 7.022,2.831 7.002,2.83 C6.984,2.829 6.968,2.829 6.949,2.829 L6.461,2.829 Z" id="Shape" fill="#000000"></path>
            <path d="M6.461,1.645 L6.461,2.382 L6.705,2.382 L6.743,2.382 C6.761,2.381 6.78,2.381 6.798,2.379 C6.848,2.375 6.918,2.369 6.987,2.35 C7.002,2.346 7.016,2.341 7.028,2.336 C7.082,2.317 7.135,2.289 7.176,2.249 C7.208,2.217 7.229,2.181 7.243,2.147 C7.261,2.105 7.267,2.064 7.27,2.036 C7.271,2.01 7.271,1.994 7.271,1.994 L7.271,1.963 C7.271,1.931 7.264,1.878 7.238,1.828 C7.226,1.804 7.208,1.781 7.186,1.759 C7.159,1.732 7.125,1.71 7.09,1.695 C7.021,1.664 6.941,1.652 6.875,1.648 C6.847,1.646 6.82,1.645 6.797,1.645 L6.461,1.645 Z" id="Shape" fill="#000000"></path>
            <path d="M5.951,1.194 L5.951,4.046 L7.024,4.046 C7.024,4.046 7.548,4.059 7.837,3.771 C8.072,3.535 8.055,3.263 8.055,3.263 C8.055,3.263 8.071,2.98 7.854,2.761 C7.667,2.576 7.432,2.526 7.432,2.526 C7.432,2.526 7.538,2.477 7.621,2.394 C7.659,2.356 7.796,2.232 7.796,1.932 C7.796,1.629 7.595,1.455 7.595,1.455 C7.595,1.455 7.374,1.194 6.876,1.194 L5.951,1.194 Z M4.848,0.64 L9.054,0.64 L9.054,4.598 L4.848,4.598 L4.848,0.64 Z" id="Shape" fill="#000000"></path>
            <path d="M1.615,2.829 L1.615,3.607 L2.121,3.607 C2.121,3.607 2.13,3.605 2.147,3.605 C2.164,3.605 2.188,3.603 2.217,3.602 C2.272,3.596 2.344,3.586 2.414,3.562 C2.478,3.542 2.539,3.509 2.587,3.462 C2.605,3.443 2.62,3.425 2.632,3.405 C2.671,3.343 2.681,3.28 2.683,3.244 C2.685,3.228 2.685,3.219 2.685,3.219 L2.685,3.2 C2.683,3.185 2.682,3.156 2.674,3.125 C2.665,3.088 2.647,3.046 2.615,3.006 C2.61,2.999 2.603,2.991 2.596,2.985 C2.581,2.97 2.567,2.957 2.551,2.945 C2.522,2.925 2.491,2.907 2.457,2.892 C2.411,2.872 2.36,2.857 2.304,2.847 C2.277,2.842 2.246,2.837 2.215,2.835 C2.196,2.832 2.177,2.831 2.157,2.83 C2.14,2.829 2.121,2.829 2.104,2.829 L1.615,2.829 Z" id="Shape" fill="#000000"></path>
            <path d="M1.615,1.645 L1.615,2.382 L1.86,2.382 L1.897,2.382 C1.914,2.381 1.935,2.381 1.952,2.379 C2.003,2.375 2.073,2.369 2.142,2.35 C2.156,2.346 2.169,2.341 2.183,2.336 C2.237,2.317 2.29,2.289 2.33,2.249 C2.362,2.217 2.383,2.181 2.398,2.147 C2.415,2.105 2.422,2.064 2.424,2.036 C2.426,2.01 2.426,1.994 2.426,1.994 L2.426,1.963 C2.423,1.931 2.417,1.878 2.392,1.828 C2.38,1.804 2.362,1.781 2.341,1.759 C2.312,1.732 2.279,1.71 2.243,1.695 C2.174,1.664 2.096,1.652 2.029,1.648 C2,1.646 1.974,1.645 1.952,1.645 L1.615,1.645 Z" id="Shape" fill="#000000"></path>
            <path d="M1.104,1.194 L1.104,4.046 L2.177,4.046 C2.177,4.046 2.7,4.059 2.989,3.771 C3.224,3.535 3.208,3.263 3.208,3.263 C3.208,3.263 3.225,2.98 3.006,2.761 C2.82,2.576 2.584,2.526 2.584,2.526 C2.584,2.526 2.691,2.477 2.773,2.394 C2.813,2.356 2.95,2.232 2.95,1.932 C2.95,1.629 2.748,1.455 2.748,1.455 C2.748,1.455 2.528,1.194 2.031,1.194 L1.104,1.194 Z M0,0.64 L4.206,0.64 L4.206,4.598 L0,4.598 L0,0.64 Z" id="Shape" fill="#000000"></path>
            <path d="M0,5.578 L0,8.851 L0.47,8.851 L0.47,7.431 L0.667,7.431 C0.908,7.431 1.103,7.508 1.536,8.18 L1.968,8.851 L2.528,8.851 C2.303,8.54 2.222,8.429 2.082,8.203 C1.833,7.796 1.65,7.493 1.353,7.297 C1.703,7.157 1.9,6.875 1.9,6.495 C1.9,5.929 1.488,5.578 0.826,5.578 L0,5.578 Z M0.47,5.982 L0.773,5.982 C1.228,5.982 1.411,6.169 1.415,6.476 C1.42,6.75 1.276,7.009 0.773,7.009 L0.47,7.009 L0.47,5.982 Z" id="Shape" fill="#000000"></path>
            <path d="M4.238,5.56 L3.907,5.56 L2.501,8.851 L2.981,8.851 L3.394,7.887 L4.786,7.887 L5.222,8.851 L5.701,8.851 L4.238,5.56 Z M4.066,6.28 L4.594,7.464 L3.576,7.464 L4.066,6.28 Z" id="Shape" fill="#000000"></path>
            <path d="M6.092,8.85 L7.368,8.85 C8.448,8.85 9.105,8.054 9.105,7.215 C9.105,6.443 8.573,5.578 7.364,5.578 L6.092,5.578 L6.092,8.85 Z M6.563,6.001 L7.286,6.001 C8.203,6.001 8.621,6.558 8.621,7.215 C8.621,7.618 8.376,8.429 7.312,8.429 L6.563,8.429 L6.563,6.001 Z" id="Shape" fill="#000000"></path>
            <path d="M9.881,8.85 L9.881,5.578" id="Shape" stroke="#000000" stroke-width="0.47"></path>
            <path d="M10.658,7.215 C10.658,8.103 11.336,8.894 12.405,8.894 C13.513,8.894 14.175,8.097 14.175,7.215 C14.175,6.304 13.495,5.536 12.415,5.536 C11.354,5.536 10.658,6.308 10.658,7.215 M11.143,7.215 C11.143,6.495 11.685,5.968 12.415,5.968 C13.149,5.968 13.691,6.495 13.691,7.215 C13.691,7.93 13.149,8.463 12.415,8.463 C11.685,8.463 11.143,7.93 11.143,7.215" id="Shape" fill="#000000"></path>
            <path d="M27.361,0 C21.633,0 16.991,4.645 16.991,10.375 C16.991,16.105 21.634,20.751 27.361,20.751 C33.09,20.751 37.73,16.105 37.73,10.375 C37.73,4.645 33.089,0 27.361,0 L27.361,0 Z M32.927,16.855 L21.477,16.855 L27.387,9.916 C28.229,8.965 28.686,8.319 28.686,7.628 C28.686,7.006 28.259,6.335 27.571,6.335 C26.747,6.335 26.333,7.15 26.3,7.728 L26.27,8.275 L22.477,8.275 L22.508,7.666 C22.565,6.597 22.744,6.01 23.246,5.247 C24.264,3.701 25.687,2.949 27.6,2.949 C30.825,2.949 32.827,4.649 32.827,7.387 C32.827,8.541 32.431,9.474 31.514,10.489 L29.162,13.176 L32.928,13.176 L32.927,16.855 L32.927,16.855 Z" id="Shape" fill="#F47C22"></path>
        </g>
    </g>
</svg>
